X:1
T:Title
%%score { 1 | 2 }
L:1/8
Q:1/4=100
M:4/4
K:Bb
V:1 treble nm="Grand Piano"
V:2 bass 
V:1
 [DF][CE][B,D][CE] [DF]2 [DB]2 | [Fd][Ec][DB][EG] [DF]4 | [DF][CE][B,D][CE] [DF]2 [DB]2 | %3
w: Charles~Bentley * * * * *|||
 [=EB][EB][EA][EB] [_Ec]4 | [DF][CE][B,D][CE] [DF]2 [DB]2 | [Fd][Ec][DB][EG] [DF]4 | %6
w: |||
 [EG][FA][GB]G FBBc | dBcA [DB]4 | c=Bcd e2 A2 | [DB][CA][DB][Ec] [Fd]4 | cBAB c2 A2 | %11
w: |||||
 c[DFB][CFA][B,=EG] [A,F]4 | [DF][CE][B,D][CE] [DF]2 [DB]2 | [Fd][Ec][DB][EG] [DF]4 | %14
w: |||
 [EG][FA][GB]G FBBc | dBcA [DB]4 |] %16
w: ||
V:2
 [B,,B,][B,,B,][B,,F,][B,,B,] [B,,B,]2 [B,,B,]2 | [B,,B,][B,,B,][B,,B,][B,,B,] [B,,B,]4 | %2
 [B,,B,][B,,B,][B,,F,][B,,B,] [B,,B,]2 [B,,B,]2 | [C,B,][C,G,][C,C][C,B,] [F,A,]4 | %4
 [B,,B,][B,,B,][B,,F,][B,,B,] [B,,B,]2 [B,,B,]2 | [B,,B,][B,,B,][B,,B,][B,,B,] [B,,B,]4 | %6
 [E,B,][E,B,][E,E][E,B,E] [F,B,D][F,B,D][F,B,D][F,B,E] | [F,B,F][F,B,D][F,A,E][F,CE] [B,,B,]4 | %8
 [F,A,F][F,_A,F][F,=A,F][F,B,F] [F,CF]2 [F,CE]2 | [B,,B,][B,,B,][B,,B,][B,,B,] [B,,B,]4 | %10
 [F,A,F][F,G,F][F,F][F,G,F] [F,A,F]2 [F,CF]2 | [F,A,F]B,,C,C, F,4 | %12
 [B,,B,][B,,B,][B,,F,][B,,B,] [B,,B,]2 [B,,B,]2 | [B,,B,][B,,B,][B,,B,][B,,B,] [B,,B,]4 | %14
 [E,B,][E,B,][E,E][E,B,E] [F,B,D][F,B,D][F,B,D][F,B,E] | [F,B,F][F,B,D][F,A,E][F,CE] [B,,B,]4 |] %16

